X: 33660
T: Rambling Pitchfork, The
R: jig
M: 6/8
K: Dmajor
|:E|F3 AFF|dFF AFD|GFG ABc|ded cAG|
FAF AFF|dFF AFD|GFG BAB|AFD D2:|
|:A|d2 e fed|ecA AFA|dcd efg|faf gfe|
[1 dcd fed|ecA AGF|GFG BAB|AFD D2:|
[2 a2 f gfe|fed ecA|GFG BAB|AFD D2||

